antibot/app/images/dist/service-mytarget-icon.svg

<svg width="45" height="45" viewBox="0 0 45 45" fill="none" xmlns="http://www.w3.org/2000/svg">
<path d="M25.612 6.12245L28.7738 3.01264C30.5038 1.30917 32.015 -0.0575561 32.1144 0.00186694C32.2338 0.06129 32.3133 2.45802 32.2735 12.5599H38.6368C43.5882 12.5599 45 12.6194 45 12.8174C45 12.9363 43.6279 14.4219 38.935 19.0965H30.4839L25.8109 23.9098L25.791 25.3161C25.7711 26.0886 25.612 27.178 25.4529 27.7128C25.2541 28.3269 24.757 29.1192 24.1803 29.7728C23.6633 30.3473 22.8082 31.0405 22.2713 31.298C21.7543 31.5555 20.8595 31.8526 20.2828 31.9319C19.726 32.0111 18.7715 32.0111 18.1949 31.9319C17.6381 31.8526 16.8228 31.5951 16.4052 31.3971C16.0075 31.199 15.3314 30.7038 14.9138 30.3076C14.5161 29.9115 13.9593 29.1588 13.681 28.6042C13.4026 28.0694 13.1043 27.0988 13.0247 26.4848C12.9253 25.8509 12.9054 24.9398 12.985 24.4446C13.0645 23.9494 13.323 23.1769 13.5616 22.7213C13.7804 22.2459 14.2775 21.5328 14.6553 21.1367C15.0133 20.7207 15.8484 20.1265 16.4848 19.7898C17.4989 19.2748 17.8966 19.1955 21.2373 19.1163L25.7114 14.6398L25.612 6.12245Z" fill="#E84342"/>
<path d="M16.1666 6.41956C16.8825 6.32052 17.8568 6.20168 18.354 6.18187L19.2488 6.12245L19.3084 9.19264C19.3283 10.8763 19.3084 12.3817 19.2488 12.5203C19.1891 12.659 18.7715 12.758 18.1949 12.758C17.6779 12.758 16.7234 12.8967 16.0672 13.0749C15.411 13.2532 14.2974 13.689 13.5815 14.0455C12.8657 14.4021 11.7919 15.0953 11.1953 15.5707C10.5988 16.0659 9.70393 16.9771 9.22669 17.6307C8.72956 18.2646 8.03358 19.4332 7.67565 20.1859C7.31772 20.9386 6.88025 22.2063 6.72117 22.959C6.56209 23.7117 6.42289 24.9199 6.42289 25.633C6.42289 26.3461 6.56209 27.5544 6.72117 28.3071C6.88025 29.0598 7.37737 30.4067 7.81485 31.2782C8.25232 32.1498 9.06761 33.3976 9.64428 34.0315C10.2209 34.6653 11.2351 35.5765 11.8913 36.0519C12.5475 36.5075 13.7605 37.1611 14.5758 37.4978C15.3911 37.8148 16.7433 38.1911 17.5586 38.3298C18.4335 38.4486 19.6266 38.4882 20.4419 38.409C21.1975 38.3298 22.5099 38.0723 23.3252 37.8148C24.1405 37.5573 25.3933 36.963 26.1091 36.5075C26.825 36.0519 27.8988 35.1803 28.4954 34.5465C29.0919 33.9324 29.9271 32.8628 30.3447 32.1498C30.7623 31.4565 31.319 30.1888 31.5776 29.3569C31.8559 28.5051 32.0747 27.5148 32.0747 27.178C32.0747 26.8215 32.1144 26.3263 32.1741 26.0886C32.2735 25.633 32.3133 25.633 38.7362 25.633L38.597 27.4751C38.5175 28.4655 38.2192 30.07 37.9408 31.0405C37.6624 31.9913 37.1653 33.3184 36.8272 34.0117C36.4892 34.6851 35.8131 35.8142 35.3557 36.5273C34.8785 37.2403 33.8445 38.4684 33.0292 39.2607C32.2338 40.0728 31.0009 41.1028 30.285 41.5782C29.5692 42.0338 28.4556 42.6875 27.7994 43.0242C27.1432 43.3411 25.8506 43.8363 24.916 44.1334C23.9814 44.4107 22.2912 44.7475 21.1379 44.8663C19.5471 45.0446 18.5926 45.0446 17.1608 44.8663C16.1268 44.7475 14.4167 44.3909 13.3827 44.0542C12.3487 43.7373 10.7777 43.0638 9.90278 42.5686C9.02784 42.0536 7.69554 41.1425 6.9399 40.5284C6.18427 39.9144 4.99116 38.6863 4.29518 37.8148C3.5992 36.9432 2.58506 35.3388 2.02828 34.2494C1.4715 33.1401 0.815289 31.3971 0.536898 30.2878C0.0994255 28.6438 0.0198851 27.8515 0 25.633C0 23.7909 0.0994255 22.4638 0.338047 21.3744C0.536898 20.5028 0.994255 19.0371 1.39196 18.1061C1.78966 17.1751 2.58506 15.7094 3.16173 14.8378C3.7384 13.9663 4.8122 12.659 5.56783 11.9261C6.30358 11.1932 7.31772 10.2821 7.81485 9.92552C8.31197 9.54918 9.28635 8.91533 10.0022 8.53898C10.7181 8.14283 12.11 7.5486 13.0844 7.21187C14.0588 6.87514 15.4507 6.5186 16.1666 6.41956Z" fill="#E84342"/>
</svg>

<svg width="45" height="45" fill="none" xmlns="http://www.w3.org/2000/svg"><path d="m25.612 6.122 3.162-3.11c1.73-1.703 3.241-3.07 3.34-3.01.12.06.2 2.456.16 12.558h6.363c4.951 0 6.363.06 6.363.257 0 .12-1.372 1.605-6.065 6.28h-8.451L25.81 23.91l-.02 1.406c-.02.773-.179 1.862-.338 2.397-.199.614-.696 1.406-1.273 2.06-.517.574-1.372 1.268-1.909 1.525-.517.258-1.412.555-1.988.634-.557.08-1.512.08-2.088 0a7.59 7.59 0 0 1-1.79-.535c-.398-.198-1.074-.693-1.491-1.09a7.803 7.803 0 0 1-1.233-1.703c-.278-.535-.577-1.505-.656-2.12-.1-.633-.12-1.544-.04-2.04.08-.495.338-1.267.577-1.723.218-.475.716-1.188 1.093-1.584.358-.416 1.193-1.01 1.83-1.347 1.014-.515 1.412-.595 4.752-.674l4.474-4.476-.099-8.518Z" fill="#E84342"/><path d="M16.167 6.42c.715-.1 1.69-.218 2.187-.238l.895-.06.06 3.07c.02 1.684 0 3.19-.06 3.328-.06.139-.477.238-1.054.238-.517 0-1.472.139-2.128.317-.656.178-1.77.614-2.486.97-.715.357-1.79 1.05-2.386 1.526-.596.495-1.491 1.406-1.968 2.06-.497.634-1.193 1.802-1.551 2.555-.358.753-.796 2.02-.955 2.773-.159.753-.298 1.96-.298 2.674 0 .713.14 1.921.298 2.674.16.753.656 2.1 1.094 2.971.437.872 1.253 2.12 1.83 2.754.576.633 1.59 1.545 2.246 2.02.656.456 1.87 1.11 2.685 1.446.815.317 2.167.693 2.983.832.874.119 2.068.158 2.883.079.756-.08 2.068-.337 2.883-.594.816-.258 2.068-.852 2.784-1.307.716-.456 1.79-1.328 2.386-1.962.597-.614 1.432-1.683 1.85-2.396.417-.694.974-1.961 1.233-2.793.278-.852.497-1.842.497-2.179 0-.357.04-.852.1-1.09.099-.455.138-.455 6.561-.455l-.139 1.842c-.08.99-.378 2.595-.656 3.566-.279.95-.776 2.277-1.114 2.97-.338.674-1.014 1.803-1.471 2.516-.477.713-1.512 1.941-2.327 2.734-.795.812-2.028 1.842-2.744 2.317-.716.456-1.83 1.11-2.486 1.446-.656.317-1.948.812-2.883 1.11-.935.277-2.625.614-3.778.732-1.59.179-2.545.179-3.977 0-1.034-.118-2.744-.475-3.778-.812-1.034-.317-2.605-.99-3.48-1.485-.875-.515-2.207-1.427-2.963-2.04-.756-.615-1.949-1.843-2.645-2.714-.696-.872-1.71-2.476-2.267-3.566C1.472 33.14.815 31.397.537 30.288.099 28.644.02 27.852 0 25.633c0-1.842.1-3.17.338-4.259.199-.871.656-2.337 1.054-3.268.398-.93 1.193-2.397 1.77-3.268.576-.872 1.65-2.179 2.406-2.912.736-.733 1.75-1.644 2.247-2a19.06 19.06 0 0 1 2.187-1.387c.716-.396 2.108-.99 3.082-1.327.975-.337 2.367-.693 3.083-.792Z" fill="#E84342"/></svg>
